X: 10261
T: AWA' TO BONNIE TWEEDSIDE
Q: "Moderately."
%R: air, jig
B: W. Hamilton "Universal Tune-Book" Vol. 1 Glasgow 1844 p.26 #1
S: http://imslp.org/wiki/Hamilton's_Universal_Tune-Book_(Various)
Z: 2016 John Chambers <jc:trillian.mit.edu>
M: 6/8
L: 1/8
K: Eb
% - - - - - - - - - - - - - - - - - - - - - - - - -
(G/F/) |\
(E>FG) (e>f)e | (d>c)B e2B | (ce)c (BG)E | F3 zz(G/F/) |\
E>FG e>fg | (fe)d e2B | (cec) BGE | E2z z2 |
B |\
(eg)e (fe)d | (ed)c B2A | (G>A)B (eB)G | F2z z2(G/F/) |\
E>FG e>fg | fed e2B | (ce)c (BG)E | E2z z2 |]
% - - - - - - - - - - - - - - - - - - - - - - - - -

%%sep 1 1 500
%%sep 1 1 500

